X:1
T:The Streets of Forbes
M:4/4
L:1/4
K:C
A,/2-B,/2|C/2-B,/2 A, E E| E2 z E/2^F/2| G/2^F/2 E A A| E2 z E| A3/2 B/2 A G|\
 E E C C| B,C/2-D/2 E E| E2 z E| A3/2 B/2 A G| E- E E- C| D3/2 E/2 D C|\
 B,2 z A,/2B,/2|C/2-B,/2 A, E E| E A- AE/2-D/2| C3/2 D/2 EC/2-B,/2|\
 A,3||

